svgs/sharp-solid/scanner-image.svg

<svg xmlns="http://www.w3.org/2000/svg" viewBox="0 0 576 512"><!--! Font Awesome Pro 6.6.0 by @fontawesome - https://fontawesome.com License - https://fontawesome.com/license (Commercial License) Copyright 2024 Fonticons, Inc. --><path d="M78.5 46.7L50 32.2 21 89.2l28.5 14.5L410.8 288 32 288 0 288l0 32L0 448l0 32 32 0 512 0 32 0 0-32 0-128 0-19.6-17.5-8.9L78.5 46.7zM64 352l64 0 0 64-64 0 0-64zm160 0l0 64-64 0 0-64 64 0z"/></svg>

<svg xmlns="http://www.w3.org/2000/svg" viewBox="0 0 576 512"><!--! Font Awesome Pro 6.4.2 by @fontawesome - https://fontawesome.com License - https://fontawesome.com/license (Commercial License) Copyright 2023 Fonticons, Inc. --><path d="M78.5 46.7L50 32.2 21 89.2l28.5 14.5L410.8 288H32 0v32V448v32H32 544h32V448 320 300.4l-17.5-8.9L78.5 46.7zM64 352h64v64H64V352zm160 0v64H160V352h64z"/></svg>
